X: 2
T: La Raspa
O: Mexico
Z: John Chambers <jc@trillian.mit.edu> http://trillian.mit.edu/~jc/music/
M: 6/8
L: 1/8
K: F
P: A
|: z2G | "C".c2G .c2G | .cz2 z2G | cdc B2c | "G7".dz2 z2G | .B2G .B2G |.Bz2 z2G | BcB A2B | "C"H.cz2 :|
P: B
|: e2g | "C"ccc cBc | "G7".dz2 d2f | BBB BAB | "C".cz2 e2g | ccc cBc | "G7".dz2 d2f | BBB BAB | "C".cz2 :|
P: A
|: z2G | "C".c2G .c2G | .cz2 z2G | cdc B2c | "G7".dz2 z2G | .B2G .B2G |.Bz2 z2G | BcB A2B | "C".cz2 :|
P: C
|: g^f | "C"ge^d ecB | .c2G- GEF | GAB cde | "G7".f2d- dfe | fd^c dB^A | .B2G- Gg^f | gag fed | "C".cz2 :|
